packages/foundations/assets/icons/functional/images/food/beverage_14.svg

<svg width="14" height="14" viewBox="0 0 14 14" fill="none" xmlns="http://www.w3.org/2000/svg">
<g clip-path="url(#clip0_185_1068)">
<path fill-rule="evenodd" clip-rule="evenodd" d="M2.8153 6.3L7.01418 6.30126C7.45098 6.30126 7.76493 6.69711 7.71033 7.10668L7.02727 11.9889C6.98625 12.3308 6.68539 12.5864 6.34351 12.6H3.54008C3.1982 12.5864 2.89734 12.3308 2.8426 11.9889L2.1088 7.10682C2.04048 6.6829 2.37766 6.3 2.8153 6.3ZM6.22144 7.70301H3.6278L4.14083 11.2051H5.7271L6.22144 7.70301ZM7.69998 2.8H9.10341L9.09893 3.4986C9.09893 4.0992 9.26273 4.68622 9.54938 5.21857L10.191 6.40619C10.3821 6.76109 10.4983 7.14357 10.4983 7.52647V11.2L9.09739 11.2025C8.71449 11.2025 8.39998 11.5034 8.39998 11.9C8.39998 12.2829 8.71449 12.5974 9.09739 12.5974L11.1957 12.6C11.5786 12.6 11.9 12.2718 11.9 11.9026V7.52647C11.9 6.9111 11.729 6.29573 11.4282 5.74875L10.7854 4.54531C10.6077 4.21708 10.4983 3.86925 10.4983 3.5V2.5214C10.4983 1.90596 9.99227 1.4 9.36325 1.4H7.43503C6.80594 1.4 6.29998 1.90596 6.29998 2.5214L6.30054 3.51225C6.30054 3.92175 6.58719 4.20847 6.99669 4.20847C7.40626 4.20847 7.69998 3.9095 7.69998 3.5V2.8Z" fill="#1A1C1F"/>
</g>
<defs>
<clipPath id="clip0_185_1068">
<rect width="14" height="14" fill="white"/>
</clipPath>
</defs>
</svg>

<svg xmlns="http://www.w3.org/2000/svg" width="14" height="14" fill="none"><g clip-path="url(#a)"><path fill="#1A1C1F" fill-rule="evenodd" d="m2.815 6.3 4.2.001a.71.71 0 0 1 .695.806l-.683 4.882a.71.71 0 0 1-.683.611H3.54a.74.74 0 0 1-.697-.611l-.734-4.882a.705.705 0 0 1 .706-.807m3.406 1.403H3.628l.513 3.502h1.586zM7.7 2.8h1.403l-.004.699c0 .6.164 1.187.45 1.72l.642 1.187c.191.355.307.738.307 1.12V11.2l-1.4.003c-.384 0-.698.3-.698.697a.7.7 0 0 0 .697.697l2.099.003a.715.715 0 0 0 .704-.697V7.526c0-.615-.171-1.23-.472-1.777l-.643-1.204a2.2 2.2 0 0 1-.287-1.045v-.979A1.13 1.13 0 0 0 9.363 1.4H7.435A1.13 1.13 0 0 0 6.3 2.521v.991c0 .41.287.696.697.696S7.7 3.91 7.7 3.5z" clip-rule="evenodd"/></g><defs><clipPath id="a"><path fill="#fff" d="M0 0h14v14H0z"/></clipPath></defs></svg>
